X: 1
T:Leaping Lizzie
M:4/4
L:1/8
C:Jim Mullany
S:NMFolkMADS
R:Rag
K:C
AB | "C" c2 AG EGAB | "C" cBAG EGAB | "C" cBcd egec | "F" A F3 F2 AB |!
 "C" c2 AG EGAB | "C" cBcd egeg | "G" aged cAGG | "C" A2 [G2c2] A [G3c3]
 :||!
 "Am" A6 A2 | "Am" ABAG EGAB | cBAG E2 ag | "C" [A2e2] [c2g2] [Ae] [c3g3
] |!
 "Am" A6 A2 | "Am" ABAG EGAB | "Am" cBAG E2 eg | "G" ag e2 "C" [E4c4] :|
|
